assets/Input numbers/Flat/input_numbers_flat.svg

<svg width="32" height="32" viewBox="0 0 32 32" fill="none" xmlns="http://www.w3.org/2000/svg">
<path d="M2 6C2 3.79086 3.79086 2 6 2H26C28.2091 2 30 3.79086 30 6V26C30 28.2091 28.2091 30 26 30H6C3.79086 30 2 28.2091 2 26V6Z" fill="#00A6ED"/>
<path d="M20.0511 8.03929C20.3687 7.66145 20.6514 7.57303 20.8296 7.56411C21.0214 7.55451 21.218 7.62968 21.3758 7.78709C21.5328 7.94369 21.6375 8.17015 21.6364 8.43409C21.6354 8.68836 21.5345 9.05045 21.15 9.4635C20.7861 9.85429 20.3041 10.3583 19.8047 10.8807L19.804 10.8814C19.1082 11.6091 18.3786 12.3721 17.8872 12.9137C17.1103 13.7702 17.7596 15.0653 18.8451 15.0653H22.8956C23.4534 15.0653 23.9055 14.6132 23.9055 14.0554C23.9055 13.4977 23.4534 13.0455 22.8956 13.0455H20.8216C20.7117 13.0455 20.6553 12.914 20.7312 12.8345C20.8918 12.6663 21.0547 12.4961 21.2171 12.3264C21.7199 11.801 22.218 11.2805 22.6282 10.8398C24.038 9.32568 23.9017 7.45409 22.8024 6.35728C22.2754 5.83144 21.5363 5.50642 20.7287 5.54684C19.9075 5.58794 19.127 5.99975 18.5051 6.73951C18.1462 7.16643 18.2013 7.80348 18.6282 8.16241C19.0551 8.52133 19.6922 8.46621 20.0511 8.03929Z" fill="white"/>
<path d="M12.1148 6.55339C12.1148 6.14043 11.8634 5.76907 11.4799 5.61571C11.0965 5.46235 10.6583 5.55789 10.3735 5.85695L8.54174 7.78057C8.15711 8.18448 8.17273 8.82372 8.57664 9.20835C8.98055 9.59299 9.61979 9.57736 10.0044 9.17345V9.17345C10.0371 9.13911 10.095 9.16225 10.095 9.20967V14.0555C10.095 14.6132 10.5471 15.0654 11.1049 15.0654C11.6626 15.0654 12.1148 14.6132 12.1148 14.0555V6.55339Z" fill="white"/>
<path d="M10.0187 19.4791C10.1648 19.1759 10.4736 18.9701 10.8284 18.9701C11.3242 18.9701 11.7262 19.3721 11.7262 19.8679C11.7262 20.2304 11.5106 20.5446 11.1996 20.6859C11.1877 20.6913 11.175 20.6944 11.1621 20.6959C10.7519 20.7423 10.3955 21.0392 10.2936 21.4638C10.1636 22.0049 10.4959 22.5489 11.0361 22.6807C11.0525 22.6856 11.069 22.69 11.0857 22.694C11.4565 22.8045 11.7262 23.1492 11.7262 23.5546C11.7262 24.0505 11.3242 24.4524 10.8284 24.4524C10.4291 24.4524 10.0882 24.191 9.97252 23.8275C9.8034 23.296 9.23544 23.0022 8.70395 23.1713C8.17246 23.3404 7.8787 23.9084 8.04781 24.4399C8.42246 25.6173 9.52426 26.4722 10.8284 26.4722C12.4397 26.4722 13.746 25.166 13.746 23.5546C13.746 22.8917 13.5251 22.281 13.1531 21.7914C13.1171 21.7441 13.1171 21.6784 13.1531 21.6311C13.5251 21.1416 13.746 20.5309 13.746 19.8679C13.746 18.2566 12.4397 16.9503 10.8284 16.9503C9.6689 16.9503 8.66935 17.6268 8.19924 18.6021C7.95706 19.1045 8.16803 19.7081 8.67045 19.9503C9.17288 20.1925 9.7765 19.9815 10.0187 19.4791Z" fill="white"/>
<path d="M19.7529 17.0343C20.294 17.1692 20.6234 17.7173 20.4885 18.2585L19.7816 21.0935C19.762 21.1724 19.8216 21.2487 19.9029 21.2487H20.714C20.783 21.2487 20.839 21.1928 20.839 21.1237V20.611C20.839 20.0533 21.2911 19.6011 21.8489 19.6011C22.4066 19.6011 22.8588 20.0533 22.8588 20.611V21.167C22.8588 21.2264 22.9009 21.2768 22.9576 21.2945C23.3681 21.4227 23.666 21.8059 23.666 22.2586C23.666 22.7113 23.3681 23.0945 22.9576 23.2227C22.9009 23.2404 22.8588 23.2909 22.8588 23.3503V25.4467C22.8588 26.0044 22.4066 26.4566 21.8489 26.4566C21.2911 26.4566 20.839 26.0044 20.839 25.4467V23.3935C20.839 23.3245 20.783 23.2685 20.714 23.2685H18.4503C18.1395 23.2685 17.8459 23.1253 17.6545 22.8804C17.4631 22.6354 17.3952 22.3159 17.4704 22.0143L18.5287 17.7699C18.6636 17.2287 19.2117 16.8993 19.7529 17.0343Z" fill="white"/>
</svg>

<svg xmlns="http://www.w3.org/2000/svg" width="32" height="32" fill="none"><path fill="#00A6ED" d="M2 6a4 4 0 0 1 4-4h20a4 4 0 0 1 4 4v20a4 4 0 0 1-4 4H6a4 4 0 0 1-4-4V6Z"/><path fill="#fff" d="M20.051 8.04c.318-.379.6-.467.779-.476a.723.723 0 0 1 .546.223.902.902 0 0 1 .26.647c0 .254-.101.616-.486 1.03-.364.39-.846.894-1.345 1.417h-.001c-.696.728-1.425 1.491-1.917 2.033-.777.856-.127 2.151.958 2.151h4.05a1.01 1.01 0 1 0 0-2.02h-2.073a.125.125 0 0 1-.09-.21l.485-.509c.503-.525 1.001-1.046 1.411-1.486 1.41-1.514 1.274-3.386.174-4.483a2.742 2.742 0 0 0-2.073-.81c-.822.04-1.602.453-2.224 1.193a1.01 1.01 0 0 0 1.546 1.3ZM12.115 6.553a1.01 1.01 0 0 0-1.742-.696L8.543 7.781a1.01 1.01 0 0 0 1.462 1.392.053.053 0 0 1 .091.037v4.845a1.01 1.01 0 0 0 2.02 0V6.554ZM10.019 19.48a.898.898 0 1 1 1.18 1.206.125.125 0 0 1-.037.01 1.01 1.01 0 0 0-.076 1.998.899.899 0 1 1-1.113 1.134 1.01 1.01 0 0 0-1.925.612 2.918 2.918 0 1 0 5.105-2.649.132.132 0 0 1 0-.16A2.918 2.918 0 1 0 8.2 18.602a1.01 1.01 0 1 0 1.82.877ZM19.753 17.034c.541.135.87.683.735 1.225l-.706 2.834c-.02.08.04.156.12.156h.812a.125.125 0 0 0 .125-.125v-.513a1.01 1.01 0 0 1 2.02 0v.556c0 .06.042.11.099.127a1.01 1.01 0 0 1 0 1.929.137.137 0 0 0-.1.127v2.097a1.01 1.01 0 0 1-2.019 0v-2.053a.125.125 0 0 0-.125-.125H18.45a1.01 1.01 0 0 1-.98-1.255l1.059-4.244a1.01 1.01 0 0 1 1.224-.736Z"/></svg>
